X: 1
T: Morecambe Bay
M: 6/8
L: 1/8
R: jig
K: Dmaj
|:A,|D2 D EDE|F2 F GFG|A2 d dcd|edB AFE|
D2 D EDE|F2 F GFG|ABc def|gec d2:|
f/g/|a2 a def|g2 g =cde|f2 d g2 f|edB Afg|
a2 a def|g2 g =cde|f2 d g2 f|ecA d2 f/g/|
a2 a def|g2 g =cde|f2 d g2 f|edB AFE|
D2 D EDE|F2 F GFG|ABc def|gec d2||
